public/images/logos/logo-capitolrecords-1.svg

<svg xmlns="http://www.w3.org/2000/svg" width="280" height="102" fill="none" viewBox="0 0 280 102"><g clip-path="url(#a)"><path fill="#fff" d="M29.067 34.736c-7.425-5.729-14.943-10.163-14.943-16.627 0-3.882 3.35-7.852 7.968-7.852 8.33 0 13.22 8.869 18.021 19.955H43.1v-25.5H22.27C5.074 4.711 0 15.337 0 23.648c0 10.904 9.144 17.368 19.105 24.943 6.976 5.264 12.862 10.163 12.862 15.798 0 6.099-4.076 9.61-9.236 9.61-5.523 0-13.674-7.393-19.376-22.726H.363v28.272h23.815c14.672 0 22.005-11.828 22.276-21.344.364-11.086-9.327-17.273-17.387-23.465m65.11 36.03V40.922c0-12.933-7.88-16.35-19.29-16.35H54.602l.092 21.061h3.35c3.533-8.963 8.601-15.52 14.037-15.52 4.71 0 6.883 4.157 6.883 8.498v4.064c-7.604 4.618-27.984 8.5-27.984 22.545 0 8.129 5.523 14.874 13.583 14.874 6.975 0 11.864-4.617 14.308-10.069.455 4.529 3.258 9.516 9.87 9.516h10.412v-4.064c-3.35 0-4.981-2.311-4.981-4.71zm-15.485-23.28v18.662c-1.447 2.123-3.804 4.528-6.52 4.528-3.805 0-6.249-2.958-6.249-8.869 0-6.745 8.965-11.086 12.77-14.32zM229.65 30.395c2.081 0 4.255.277 5.344 2.864l18.384 46.375c-3.534 8.222-9.599 9.516-20.466 6.099v16.262c5.523 0 10.596.094 11.865-.277 7.154-2.123 11.501-16.444 13.49-21.985l15.577-42.958c1.718-4.71 3.17-8.128 6.157-8.128v-4.064h-16.753v4.064c5.707 0 7.333 3.047 4.526 11.27l-6.792 18.755-8.693-22.82c-1.995-4.434-.905-7.205 3.257-7.205v-4.064h-43.104V6.1h-3.984c-1.176 6.281-7.789 18.479-18.748 18.479v4.064h7.063v37.97c0 6.376 2.081 13.763 14.216 13.763h18.835V59.313h-3.079c-1.36 4.9-4.439 14.692-10.504 14.692-3.349 0-3.805-3.788-3.805-6.834V30.395zm-46.276 40.37V24.573H162.73v4.064c3.533 0 5.073 2.217 5.073 4.805v37.323c-.179 2.494-1.811 4.711-5.073 4.711v4.064h26.08v-4.064c-2.536 0-5.252-2.311-5.431-4.71zm-59.673 0 .092-31.595c2.173-2.958 4.438-5.54 8.238-5.54s5.707 3.046 5.707 6.834v30.301c0 2.4-1.631 4.711-4.981 4.711v4.064h25.718v-4.064c-3.258 0-4.889-2.588-4.889-4.71V39.17c0-9.886-4.618-15.703-13.767-15.703-7.604 0-12.406 5.175-16.026 10.622v-9.516h-21.279v4.064c3.804 0 5.344 2.587 5.344 4.805v37.323c0 2.4-1.632 4.711-4.981 4.711v4.064h25.717v-4.064c-3.257 0-4.888-2.588-4.888-4.71zm50.622-51.92c5.794 0 9.42-4.159 9.42-9.517S180.121 0 174.322 0s-9.507 3.97-9.507 9.328 3.892 9.516 9.507 9.516z"/></g><defs><clipPath id="a"><path fill="#fff" d="M0 0h280v102H0z"/></clipPath></defs></svg>

<svg width="280" height="102" viewBox="0 0 280 102" fill="none" xmlns="http://www.w3.org/2000/svg">
<g clip-path="url(#clip0_7_224)">
<path d="M29.067 34.736C21.642 29.007 14.124 24.573 14.124 18.109C14.124 14.227 17.474 10.257 22.092 10.257C30.422 10.257 35.312 19.126 40.113 30.212H43.1V4.712H22.27C5.074 4.711 0 15.337 0 23.648C0 34.552 9.144 41.016 19.105 48.591C26.081 53.855 31.967 58.754 31.967 64.389C31.967 70.488 27.891 73.999 22.731 73.999C17.208 73.999 9.057 66.606 3.355 51.273H0.363V79.545H24.178C38.85 79.545 46.183 67.717 46.454 58.201C46.818 47.115 37.127 40.928 29.067 34.736ZM94.177 70.766V40.922C94.177 27.989 86.297 24.572 74.887 24.572H54.602L54.694 45.633H58.044C61.577 36.67 66.645 30.113 72.081 30.113C76.791 30.113 78.964 34.27 78.964 38.611V42.675C71.36 47.293 50.98 51.175 50.98 65.22C50.98 73.349 56.503 80.094 64.563 80.094C71.538 80.094 76.427 75.477 78.871 70.025C79.326 74.554 82.129 79.541 88.741 79.541H99.153V75.477C95.803 75.477 94.172 73.166 94.172 70.767L94.177 70.766ZM78.692 47.486V66.148C77.245 68.271 74.888 70.676 72.172 70.676C68.367 70.676 65.923 67.718 65.923 61.807C65.923 55.062 74.888 50.721 78.693 47.487L78.692 47.486ZM229.65 30.395C231.731 30.395 233.905 30.672 234.994 33.259L253.378 79.634C249.844 87.856 243.779 89.15 232.912 85.733V101.995C238.435 101.995 243.508 102.089 244.777 101.718C251.931 99.595 256.278 85.274 258.267 79.733L273.844 36.775C275.562 32.065 277.014 28.647 280.001 28.647V24.583H263.248V28.647C268.955 28.647 270.581 31.694 267.774 39.917L260.982 58.672L252.289 35.852C250.294 31.418 251.384 28.647 255.546 28.647V24.583H212.442V6.1H208.458C207.282 12.381 200.669 24.579 189.71 24.579V28.643H196.773V66.613C196.773 72.989 198.854 80.376 210.989 80.376H229.824V59.313H226.745C225.385 64.213 222.306 74.005 216.241 74.005C212.892 74.005 212.436 70.217 212.436 67.171V30.395H229.65ZM183.374 70.765V24.573H162.73V28.637C166.263 28.637 167.803 30.854 167.803 33.442V70.765C167.624 73.259 165.992 75.476 162.73 75.476V79.54H188.81V75.476C186.274 75.476 183.558 73.165 183.379 70.766L183.374 70.765ZM123.701 70.765L123.793 39.17C125.966 36.212 128.231 33.63 132.031 33.63C135.831 33.63 137.738 36.676 137.738 40.464V70.765C137.738 73.165 136.107 75.476 132.757 75.476V79.54H158.475V75.476C155.217 75.476 153.586 72.888 153.586 70.766V39.17C153.586 29.284 148.968 23.467 139.819 23.467C132.215 23.467 127.413 28.642 123.793 34.089V24.573H102.514V28.637C106.318 28.637 107.858 31.224 107.858 33.442V70.765C107.858 73.165 106.226 75.476 102.877 75.476V79.54H128.594V75.476C125.337 75.476 123.706 72.888 123.706 70.766L123.701 70.765ZM174.323 18.845C180.117 18.845 183.743 14.686 183.743 9.328C183.743 3.97 180.121 0 174.322 0C168.523 0 164.815 3.97 164.815 9.328C164.815 14.686 168.707 18.844 174.322 18.844L174.323 18.845Z" fill="white"/>
</g>
<defs>
<clipPath id="clip0_7_224">
<rect width="280" height="102" fill="white"/>
</clipPath>
</defs>
</svg>
